polaris-icons/icons/new-icons/QuickSaleMajor.svg

<svg width="20" height="20" viewBox="0 0 20 20" fill="none" xmlns="http://www.w3.org/2000/svg">
<path fill-rule="evenodd" clip-rule="evenodd" d="M4.25 3C3.83579 3 3.5 3.33579 3.5 3.75C3.5 4.16421 3.83579 4.5 4.25 4.5H5.86199C5.98863 4.5 6.09526 4.59469 6.11023 4.72045L7.15028 13.4569C7.25508 14.3371 8.00153 15 8.88801 15H14.25C14.6642 15 15 14.6642 15 14.25C15 13.8358 14.6642 13.5 14.25 13.5H8.88801C8.76137 13.5 8.65474 13.4053 8.63977 13.2796L8.54696 12.5H13.8979C15.3349 12.5 16.5296 11.3937 16.6398 9.96092L16.9978 5.30752C17.0138 5.09923 16.9422 4.89369 16.8003 4.74041C16.6583 4.58713 16.4589 4.5 16.25 4.5H7.59405C7.4704 3.6413 6.73393 3 5.86199 3H4.25ZM13.8979 11H8.36839L7.77315 6H15.4401L15.1443 9.84587C15.0942 10.4971 14.5511 11 13.8979 11Z" fill="#4A4A4A"/>
<path d="M2.75 6.5C2.33579 6.5 2 6.83579 2 7.25C2 7.66421 2.33579 8 2.75 8H3.25C3.66421 8 4 7.66421 4 7.25C4 6.83579 3.66421 6.5 3.25 6.5H2.75Z" fill="#4A4A4A"/>
<path d="M2.75 9.5C2.33579 9.5 2 9.83579 2 10.25C2 10.6642 2.33579 11 2.75 11H4.25C4.66421 11 5 10.6642 5 10.25C5 9.83579 4.66421 9.5 4.25 9.5H2.75Z" fill="#4A4A4A"/>
<path d="M2 13.25C2 12.8358 2.33579 12.5 2.75 12.5H5.25C5.66421 12.5 6 12.8358 6 13.25C6 13.6642 5.66421 14 5.25 14H2.75C2.33579 14 2 13.6642 2 13.25Z" fill="#4A4A4A"/>
<path d="M10 17C10 17.5523 9.55228 18 9 18C8.44772 18 8 17.5523 8 17C8 16.4477 8.44772 16 9 16C9.55228 16 10 16.4477 10 17Z" fill="#4A4A4A"/>
<path d="M15 17C15 17.5523 14.5523 18 14 18C13.4477 18 13 17.5523 13 17C13 16.4477 13.4477 16 14 16C14.5523 16 15 16.4477 15 17Z" fill="#4A4A4A"/>
</svg>

<svg viewBox="0 0 20 20" xmlns="http://www.w3.org/2000/svg"><path fill-rule="evenodd" d="M4.25 3a.75.75 0 0 0 0 1.5h1.612a.25.25 0 0 1 .248.22l1.04 8.737a1.75 1.75 0 0 0 1.738 1.543h5.362a.75.75 0 0 0 0-1.5h-5.362a.25.25 0 0 1-.248-.22l-.093-.78h5.35a2.75 2.75 0 0 0 2.743-2.54l.358-4.652a.75.75 0 0 0-.748-.808h-8.656a1.75 1.75 0 0 0-1.732-1.5h-1.612Zm9.648 8h-5.53l-.595-5h7.667l-.296 3.846a1.25 1.25 0 0 1-1.246 1.154Z" fill="#5C5F62"/><path d="M2.75 6.5a.75.75 0 0 0 0 1.5h.5a.75.75 0 0 0 0-1.5h-.5Z" fill="#5C5F62"/><path d="M2.75 9.5a.75.75 0 0 0 0 1.5h1.5a.75.75 0 0 0 0-1.5h-1.5Z" fill="#5C5F62"/><path d="M2 13.25a.75.75 0 0 1 .75-.75h2.5a.75.75 0 0 1 0 1.5h-2.5a.75.75 0 0 1-.75-.75Z" fill="#5C5F62"/><path d="M10 17a1 1 0 1 1-2 0 1 1 0 0 1 2 0Z" fill="#5C5F62"/><path d="M15 17a1 1 0 1 1-2 0 1 1 0 0 1 2 0Z" fill="#5C5F62"/></svg>
